!!!OTL: JETZUND NEHM ICH MEINE BUECHSE
!!!ARE: Europa, Mitteleuropa, Deutschland, Hessen, Marburg, Eschwege
!!!SCT: E1468
!!!YEM: Copyright 1995, estate of Helmut Schaffrath.
**kern
*ICvox
*Ivox
*M3/4
*k[f#]
*G:
{8d
8d
=1
4g
4dd
8b
8g
=2
4a
4cc}
{8a
8a
=3
4b
4b
8dd
8b
=4
2a}
{8a
8b
=5
4cc
4ee
8gg
8ee
=6
4dd
4b}
{8a
8b
=7
4cc
8cc
8ee
8dd
8cc
=8
2b}
{8a
8b
=9
4cc
4ee
8gg
8ee
=10
4dd
4b}
{8a
8b
=11
4cc
8cc
8ee
8dd
8cc
=12
2b}
==
!!!AGN: Staende -, Jaeger - Lied, Wilderer
!!!ONB: ESAC (Essen Associative Code) Database: ERK3
!!!AMT: simple triple
!!!AIN: vox
!!!EED: Helmut Schaffrath
!!!EEV: 1.0
*-
